X: 12988
T: Fiery Nights
R: jig
M: 6/8
K: Eminor
|:E2 B BAG|F2 d d2 z|E2 B BAG|FGA FED|
E2 B BAG|F2 d d2 B|efg fed|1 e3 e2 z:|2 e3 e2 B||
|:e3 efg|~a3 aga|b2 b bag|ab e3 B|
e2 e efg|~a3 aga|bge afd|e3 e2 B:|

